X:2
T: Kesh Jig (J-18)
M: 6/8
R: jig
K: G
D| "G"G3 GAB| "D"ABA ABd| "G"edd gdd| edB "D"dBA|
   "G"G3 GAB| "D"ABA ABd| "G"edd gdB| "D"AGF "G"G2 :|
|:A| "G"B3 dBd| "C"ege "G"dBG| BAB dBG| "Am"ABA AGA|
   "G"B3 dBd| "C"ege "G"dBd| "C"g3 "D"aga| "G"bgg g2 :|
%%text For use only by Roaring Jelly members

#include "RightHeader.h"
%%text Set 85, continued
%%scale .8
